src/images/services-section/icon/searching.svg

<svg fill="none" height="140" viewBox="0 0 208 140" width="208" xmlns="http://www.w3.org/2000/svg" xmlns:xlink="http://www.w3.org/1999/xlink"><filter id="a" color-interpolation-filters="sRGB" filterUnits="userSpaceOnUse" height="142" width="208" x="0" y="-2.02124"><feFlood flood-opacity="0" result="BackgroundImageFix"/><feColorMatrix in="SourceAlpha" type="matrix" values="0 0 0 0 0 0 0 0 0 0 0 0 0 0 0 0 0 0 127 0"/><feOffset dx="9" dy="9"/><feGaussianBlur stdDeviation="6"/><feColorMatrix type="matrix" values="0 0 0 0 0.9 0 0 0 0 0.9 0 0 0 0 0.9 0 0 0 0.5 0"/><feBlend in2="BackgroundImageFix" mode="normal" result="effect1_dropShadow"/><feColorMatrix in="SourceAlpha" type="matrix" values="0 0 0 0 0 0 0 0 0 0 0 0 0 0 0 0 0 0 127 0"/><feOffset dx="-9" dy="-9"/><feGaussianBlur stdDeviation="6"/><feColorMatrix type="matrix" values="0 0 0 0 0.99 0 0 0 0 0.99 0 0 0 0 0.99 0 0 0 0.5 0"/><feBlend in2="effect1_dropShadow" mode="normal" result="effect2_dropShadow"/><feBlend in="SourceGraphic" in2="effect2_dropShadow" mode="normal" result="shape"/></filter><clipPath id="b"><path d="m21 18.9788h166v100h-166z"/></clipPath><g filter="url(#a)"><g clip-path="url(#b)"><path d="m69.0679 48.6702h-24.9923l-7.8346 19.0123-1.741 1.7284v23.3333h.8891 14.7801l2.4254-2.826c1.7318-2.1777 4.3742-3.431 7.1562-3.3941l9.3171.1233z" fill="#f2eee9"/><path d="m76.8456 87.559h90.7407v6.04938h-90.7407z" fill="#ce8d80"/><path d="m172.761 33.9788h-95.9154v53.5802h95.9154z" fill="#f2eee9"/><path d="m76.8457 33.9788h-7.7778v59.5794l7.7778.0502z" fill="#4b5266"/><circle cx="60.8579" cy="94.0404" fill="#3f3f3f" r="9.93827"/><circle cx="60.858" cy="94.0404" fill="#fff" r="4.75309"/><circle cx="133.451" cy="94.0404" fill="#3f3f3f" r="9.93827"/><circle cx="133.451" cy="94.0404" fill="#fff" r="4.75309"/><circle cx="153.327" cy="94.0404" fill="#3f3f3f" r="9.93827"/><circle cx="153.327" cy="94.0404" fill="#fff" r="4.75309"/><g fill="#3f3f3f"><path d="m59.5617 65.0899h-22.27l4.9456-12.0988h17.3244z"/><path d="m39.2531 82.3738h-4.7531v-2.5926h4.7531c.7159 0 1.2963.5804 1.2963 1.2963 0 .716-.5804 1.2963-1.2963 1.2963z"/></g></g></g></svg>

<svg width="208" height="140" viewBox="0 0 208 140" fill="none" xmlns="http://www.w3.org/2000/svg">
<g filter="url(#filter0_dd)">
<g clip-path="url(#clip0)">
<path d="M69.0679 48.6702H44.0756L36.241 67.6825L34.5 69.4109V92.7442H35.3891H50.1692L52.5946 89.9182C54.3264 87.7405 56.9688 86.4872 59.7508 86.5241L69.0679 86.6474V48.6702Z" fill="#F2EEE9"/>
<rect x="76.8456" y="87.559" width="90.7407" height="6.04938" fill="#CE8D80"/>
<path d="M172.761 33.9788H76.8456V87.559H172.761L172.761 33.9788Z" fill="#F2EEE9"/>
<path d="M76.8457 33.9788L69.0679 33.9788L69.0679 93.5582L76.8457 93.6084V33.9788Z" fill="#4B5266"/>
<circle cx="60.8579" cy="94.0404" r="9.93827" fill="#3F3F3F"/>
<circle cx="60.858" cy="94.0404" r="4.75309" fill="white"/>
<circle cx="133.451" cy="94.0404" r="9.93827" fill="#3F3F3F"/>
<circle cx="133.451" cy="94.0404" r="4.75309" fill="white"/>
<circle cx="153.327" cy="94.0404" r="9.93827" fill="#3F3F3F"/>
<circle cx="153.327" cy="94.0404" r="4.75309" fill="white"/>
<path d="M59.5617 65.0899H37.2917L42.2373 52.9911H59.5617V65.0899Z" fill="#3F3F3F"/>
<path d="M39.2531 82.3738H34.5V79.7812H39.2531C39.969 79.7812 40.5494 80.3616 40.5494 81.0775C40.5494 81.7935 39.969 82.3738 39.2531 82.3738Z" fill="#3F3F3F"/>
</g>
</g>
<defs>
<filter id="filter0_dd" x="0" y="-2.02124" width="208" height="142" filterUnits="userSpaceOnUse" color-interpolation-filters="sRGB">
<feFlood flood-opacity="0" result="BackgroundImageFix"/>
<feColorMatrix in="SourceAlpha" type="matrix" values="0 0 0 0 0 0 0 0 0 0 0 0 0 0 0 0 0 0 127 0"/>
<feOffset dx="9" dy="9"/>
<feGaussianBlur stdDeviation="6"/>
<feColorMatrix type="matrix" values="0 0 0 0 0.9 0 0 0 0 0.9 0 0 0 0 0.9 0 0 0 0.5 0"/>
<feBlend mode="normal" in2="BackgroundImageFix" result="effect1_dropShadow"/>
<feColorMatrix in="SourceAlpha" type="matrix" values="0 0 0 0 0 0 0 0 0 0 0 0 0 0 0 0 0 0 127 0"/>
<feOffset dx="-9" dy="-9"/>
<feGaussianBlur stdDeviation="6"/>
<feColorMatrix type="matrix" values="0 0 0 0 0.99 0 0 0 0 0.99 0 0 0 0 0.99 0 0 0 0.5 0"/>
<feBlend mode="normal" in2="effect1_dropShadow" result="effect2_dropShadow"/>
<feBlend mode="normal" in="SourceGraphic" in2="effect2_dropShadow" result="shape"/>
</filter>
<clipPath id="clip0">
<rect x="21" y="18.9788" width="166" height="100" fill="white"/>
</clipPath>
</defs>
</svg>
